app/icon.svg

<svg width="794" height="381" viewBox="0 0 794 381" fill="none" xmlns="http://www.w3.org/2000/svg">
<g filter="url(#filter0_ii_1215_12551)">
<path fill-rule="evenodd" clip-rule="evenodd" d="M133.368 5.06307C128.818 7.83697 122.813 13.8264 120.024 18.3768C115.352 25.993 115.001 30.4469 115.605 74.5375L116.26 122.425L132.756 126.579C153.917 131.909 170.698 141.822 182.088 155.722C194.077 170.353 193.501 172.299 180.342 161.64C155.026 141.137 136.954 137.266 94.2365 143.202C58.1758 148.212 36.8322 146.21 15.0141 135.766C7.99432 132.409 1.87803 130.033 1.42122 130.49C0.96186 130.947 6.39799 136.545 13.499 142.931C36.3983 163.516 64.7261 169.698 103.743 162.622C138.995 156.232 175.299 174.078 191.102 205.568C193.843 211.027 192.914 210.646 184.458 202.848C162.823 182.892 141.619 175.895 112.58 179.129C102.041 180.304 79.7148 181.281 62.9648 181.304C34.1319 181.342 31.6651 180.93 16.6485 173.601C7.92326 169.345 0.786746 166.459 0.786746 167.19C0.786746 170.802 24.4449 190.194 35.3501 195.521C48.3796 201.886 60.2822 202.553 117.529 200.135C135.944 199.358 140.799 200.061 150.714 204.946C165.551 212.258 180.88 225.473 187.166 236.373L192.084 244.905L183.359 237.814C178.558 233.914 168.35 227.633 160.673 223.856C148.458 217.846 143.862 217.019 123.874 217.237C111.311 217.372 90.0414 218.377 76.6059 219.468C49.0902 221.704 32.8199 218.996 12.4483 208.786L0 202.546L6.1036 210.144C15.2197 221.491 37.048 235.084 51.8641 238.637C60.2772 240.654 71.4235 241.154 83.0013 240.033C92.9193 239.071 103.888 238.061 107.378 237.787L113.722 237.292L114.991 298.323C116.103 351.819 116.834 360.224 120.899 366.421C130.132 380.497 131.987 380.682 263.376 380.682H384.006V345.811L368.32 342.725C310.324 331.315 262.98 287.295 246.733 229.678C241.068 209.591 242.111 167.33 248.798 145.928C265.883 91.2444 316.588 46.2249 369.66 38.6189L382.737 36.7459L384.23 0L262.934 0.0101508C146.377 0.0177644 141.317 0.215722 133.368 5.06307ZM410.654 36.7459L423.732 38.6189C489.955 48.1106 545.228 109.763 550.689 180.227C554.516 229.632 531.62 281.527 492.782 311.464C472.949 326.749 451.732 336.832 429.054 341.751L409.385 346.017V380.682H530.186C662.003 380.682 661.191 380.766 672.056 366.005C676.748 359.63 677.19 354.443 677.893 297.366L678.654 235.619L689.313 237.726C695.176 238.883 709.68 239.83 721.544 239.83C739.853 239.83 745.228 238.792 757.075 232.967C764.752 229.193 776.172 220.836 782.453 214.395L793.874 202.683L780.921 209.149C761.105 219.039 744.37 221.722 716.595 219.458C666.754 215.397 648.101 216.321 632.549 223.615C624.78 227.259 614.215 234.571 609.073 239.865C597.95 251.319 596.823 248.408 606.962 234.409C616.344 221.458 626.892 212.705 642.06 205.281C652.643 200.102 657.194 199.421 675.862 200.226C734.5 202.756 744.796 202.074 758.884 194.719C772.571 187.575 790.067 173.657 790.067 169.914C790.067 168.741 783.502 170.741 775.474 174.362C757.075 182.664 727.866 184.722 693.308 180.146C655.63 175.159 630.711 181.786 609.243 202.492C604.008 207.543 599.726 210.738 599.726 209.596C599.726 204.997 617.938 183.108 626.932 176.898C649.085 161.597 658.366 160.117 710.124 163.615C735.376 165.322 739.436 164.972 752.669 159.96C761.727 156.529 772.36 149.669 780.586 141.949L793.874 129.477L779.251 135.782C754.917 146.271 733.99 148.258 699.863 143.322C675.195 139.753 667.83 139.566 654.06 142.164C636.49 145.481 611.421 159.549 603.868 170.332C601.589 173.583 599.726 175.012 599.726 173.505C599.726 168.492 616.727 148.418 627.006 141.294C639.647 132.533 660.798 124.356 670.815 124.356H678.4L678.39 75.5019C678.38 20.9451 676.926 15.3669 660.024 5.06307C652.075 0.215722 647.014 0.0177644 530.457 0.0101508L409.162 0L410.654 36.7459ZM392.399 60.3381C390.732 61.4167 389.019 68.8958 388.592 76.9561L387.813 91.6098L376.685 81.2147C365.297 70.5759 358.072 68.9821 356.572 76.7759C356.044 79.5117 362.011 87.2954 372.403 97.4393L389.082 113.71V148.882L370.048 154.729L340.824 125.584C324.752 109.555 309.74 96.4394 307.469 96.4394C298.99 96.4394 300.292 104.205 310.657 115.448L320.973 126.64L304.903 127.402C289.661 128.125 288.836 128.488 288.836 134.508C288.836 140.748 289.237 140.873 313.26 142.121L337.685 143.39L349.118 153.945C360.275 164.246 360.483 164.721 357.717 173.558L354.882 182.616L265.995 183.996V190.341C265.995 196.351 266.83 196.726 281.857 197.442C290.582 197.856 297.719 198.665 297.719 199.239C297.719 199.81 293.11 205.122 287.478 211.042C281.847 216.963 277.578 223.567 277.992 225.714C279.601 234.076 287.509 230.696 304.025 214.58L321.065 197.955H353.483L361.351 216.783L332.079 246.073C315.979 262.181 302.068 276.19 301.17 277.202C299.295 279.314 304.804 286.78 308.238 286.78C309.494 286.78 315.636 282.067 321.884 276.306L333.249 265.83V281.07C333.249 298.135 337.677 305.271 344.669 299.47C347.542 297.084 348.476 290.651 348.476 273.233V250.156L360.194 238.261C371.629 226.648 372.099 226.445 379.862 229.703L387.813 233.043L390.351 321.042H396.696C402.66 321.042 403.117 320.08 404.309 305.033L405.578 289.021L415.611 299.323C426.097 310.088 433.848 312.421 436.467 305.601C437.515 302.868 432.609 296.137 421.158 284.598L404.309 267.619V251.022C404.309 234.647 404.426 234.371 412.933 230.312L421.559 226.199L449.098 254.143C481.04 286.554 484.433 288.958 490.166 283.225C493.876 279.512 493.176 278.113 481.842 266.604L469.464 254.039L486.983 253.278C501.777 252.638 504.645 251.775 505.413 247.748C506.822 240.37 501.363 238.642 476.532 238.599L453.585 238.561L432.092 216.661L439.858 198.074L483.595 197.381C524.085 196.736 527.399 196.33 528.249 191.914C529.541 185.179 524.422 182.811 508.469 182.765L494.617 182.727L505.297 171.845C516.469 160.462 518.747 153.176 511.956 150.57C509.223 149.522 502.492 154.427 490.953 165.878L473.974 182.727H455.638C439.672 182.727 437.302 182.136 437.302 178.159C437.302 175.647 435.931 172.22 434.259 170.548C431.891 168.18 438.162 160.475 462.435 135.924C479.606 118.554 493.163 102.85 492.562 101.025C490.242 93.9903 480.707 95.9648 472.639 105.154C468.269 110.131 463.724 114.205 462.539 114.205C461.353 114.205 460.044 107.068 459.63 98.3428C458.914 83.316 458.539 82.4811 452.529 82.4811C446.243 82.4811 446.177 82.7145 445.459 107.276L444.73 132.074L433.914 143.362C423.328 154.412 422.902 154.59 413.761 151.783L404.424 148.918L403.731 104.312C403.155 67.0152 402.416 59.597 399.234 59.0412C397.14 58.6758 394.064 59.2595 392.399 60.3381ZM419.811 78.0702C412.692 84.2855 411.669 86.6559 412.375 95.2999L413.192 105.322L425.343 92.8001C437.37 80.4051 439.675 73.1011 432.018 71.6265C429.843 71.2078 424.349 74.1061 419.811 78.0702ZM335.048 82.7958C334.058 83.7855 333.249 89.3308 333.249 95.1197C333.249 103.535 334.797 107.124 340.987 113.052L348.722 120.465L347.966 101.475C347.291 84.5824 346.634 82.3998 342.027 81.74C339.177 81.3314 336.038 81.8085 335.048 82.7958ZM474.094 134.515L466.571 142.367L485.562 141.611C503.929 140.878 504.556 140.642 504.556 134.508C504.556 128.787 503.429 128.089 493.087 127.414C483.085 126.759 480.654 127.668 474.094 134.515ZM279.108 151.428C275.675 154.859 277.596 161.066 284.235 167.995C289.496 173.487 293.391 175.114 301.269 175.114H311.487L298.987 162.424C286.922 150.174 282.697 147.837 279.108 151.428ZM482.984 206.553C482.984 210.131 507.116 231.071 510.489 230.422C517.24 229.12 516.697 222.138 509.177 213.57C503.627 207.243 500.147 205.568 492.569 205.568C487.298 205.568 482.984 206.012 482.984 206.553ZM288.998 242.568C282.829 248.738 288.405 253.788 301.393 253.788C309.263 253.788 313.509 252.247 317.58 247.915C320.615 244.684 323.097 241.428 323.097 240.68C323.097 239.934 316.357 239.119 308.121 238.87C297.193 238.543 292.024 239.543 288.998 242.568ZM444.916 280.126C444.916 291.417 446.068 297.267 448.722 299.47C459.889 308.738 465.244 279.768 454.27 269.457C451.039 266.421 447.613 263.939 446.657 263.939C445.697 263.939 444.916 271.223 444.916 280.126ZM367.797 288.996C359.62 297.318 355.92 302.98 356.932 305.619C359.308 311.806 367.112 310.37 374.822 302.325C380.347 296.556 381.644 293.072 381.007 285.699L380.2 276.375L367.797 288.996Z" fill="url(#paint0_linear_1215_12551)"/>
</g>
<defs>
<filter id="filter0_ii_1215_12551" x="0" y="-7.94214" width="1649.41" height="396.566" filterUnits="userSpaceOnUse" color-interpolation-filters="sRGB">
<feFlood flood-opacity="0" result="BackgroundImageFix"/>
<feBlend mode="normal" in="SourceGraphic" in2="BackgroundImageFix" result="shape"/>
<feColorMatrix in="SourceAlpha" type="matrix" values="0 0 0 0 0 0 0 0 0 0 0 0 0 0 0 0 0 0 127 0" result="hardAlpha"/>
<feOffset dy="-7.94214"/>
<feGaussianBlur stdDeviation="5.65878"/>
<feComposite in2="hardAlpha" operator="arithmetic" k2="-1" k3="1"/>
<feColorMatrix type="matrix" values="0 0 0 0 0.177543 0 0 0 0 0.628282 0 0 0 0 0.80219 0 0 0 1 0"/>
<feBlend mode="normal" in2="shape" result="effect1_innerShadow_1215_12551"/>
<feColorMatrix in="SourceAlpha" type="matrix" values="0 0 0 0 0 0 0 0 0 0 0 0 0 0 0 0 0 0 127 0" result="hardAlpha"/>
<feOffset dy="7.94214"/>
<feGaussianBlur stdDeviation="4.76529"/>
<feComposite in2="hardAlpha" operator="arithmetic" k2="-1" k3="1"/>
<feColorMatrix type="matrix" values="0 0 0 0 0.515301 0 0 0 0 0.85206 0 0 0 0 0.98199 0 0 0 1 0"/>
<feBlend mode="normal" in2="effect1_innerShadow_1215_12551" result="effect2_innerShadow_1215_12551"/>
</filter>
<linearGradient id="paint0_linear_1215_12551" x1="824.703" y1="0" x2="824.703" y2="380.682" gradientUnits="userSpaceOnUse">
<stop stop-color="#6AD5FF"/>
<stop offset="1" stop-color="#3DBCED"/>
</linearGradient>
</defs>
</svg>

<svg xmlns="http://www.w3.org/2000/svg" width="794" height="381" fill="none"><g filter="url(#a)"><path fill="url(#b)" fill-rule="evenodd" d="M133.368 5.063c-4.55 2.774-10.555 8.763-13.344 13.314-4.672 7.616-5.023 12.07-4.419 56.16l.655 47.888 16.496 4.154c21.161 5.33 37.942 15.243 49.332 29.143 11.989 14.631 11.413 16.577-1.746 5.918-25.316-20.503-43.388-24.374-86.105-18.438-36.061 5.01-57.405 3.008-79.223-7.436-7.02-3.357-13.136-5.733-13.593-5.276-.46.457 4.977 6.055 12.078 12.441 22.9 20.585 51.227 26.767 90.244 19.691 35.252-6.39 71.556 11.456 87.359 42.946 2.741 5.459 1.812 5.078-6.644-2.72-21.635-19.956-42.839-26.953-71.878-23.719-10.539 1.175-32.865 2.152-49.615 2.175-28.833.038-31.3-.374-46.317-7.703C7.923 169.345.787 166.459.787 167.19c0 3.612 23.658 23.004 34.563 28.331 13.03 6.365 24.932 7.032 82.179 4.614 18.415-.777 23.27-.074 33.185 4.811 14.837 7.312 30.166 20.527 36.452 31.427l4.918 8.532-8.725-7.091c-4.801-3.9-15.009-10.181-22.686-13.958-12.215-6.01-16.811-6.837-36.799-6.619-12.563.135-33.833 1.14-47.268 2.231-27.516 2.236-43.786-.472-64.158-10.682L0 202.546l6.104 7.598c9.116 11.347 30.944 24.94 45.76 28.493 8.413 2.017 19.56 2.517 31.137 1.396 9.918-.962 20.887-1.972 24.377-2.246l6.344-.495 1.269 61.031c1.112 53.496 1.843 61.901 5.908 68.098 9.233 14.076 11.088 14.261 142.477 14.261h120.63v-34.871l-15.686-3.086c-57.996-11.41-105.34-55.43-121.587-113.047-5.665-20.087-4.622-62.348 2.065-83.75 17.085-54.684 67.79-99.703 120.862-107.31l13.077-1.872L384.23 0 262.934.01C146.377.018 141.317.216 133.368 5.063m277.286 31.683 13.078 1.873c66.223 9.492 121.496 71.144 126.957 141.608 3.827 49.405-19.069 101.3-57.907 131.237-19.833 15.285-41.05 25.368-63.728 30.287l-19.669 4.266v34.665h120.801c131.817 0 131.005.084 141.87-14.677 4.692-6.375 5.134-11.562 5.837-68.639l.761-61.747 10.659 2.107c5.863 1.157 20.367 2.104 32.231 2.104 18.309 0 23.684-1.038 35.531-6.863 7.677-3.774 19.097-12.131 25.378-18.572l11.421-11.712-12.953 6.466c-19.816 9.89-36.551 12.573-64.326 10.309-49.841-4.061-68.494-3.137-84.046 4.157-7.769 3.644-18.334 10.956-23.476 16.25-11.123 11.454-12.25 8.543-2.111-5.456 9.382-12.951 19.93-21.704 35.098-29.128 10.583-5.179 15.134-5.86 33.802-5.055 58.638 2.53 68.934 1.848 83.022-5.507 13.687-7.144 31.183-21.062 31.183-24.805 0-1.173-6.565.827-14.593 4.448-18.399 8.302-47.608 10.36-82.166 5.784-37.678-4.987-62.597 1.64-84.065 22.346-5.235 5.051-9.517 8.246-9.517 7.104 0-4.599 18.212-26.488 27.206-32.698 22.153-15.301 31.434-16.781 83.192-13.283 25.252 1.707 29.312 1.357 42.545-3.655 9.058-3.431 19.691-10.291 27.917-18.011l13.288-12.472-14.623 6.305c-24.334 10.489-45.261 12.476-79.388 7.54-24.668-3.569-32.033-3.756-45.803-1.158-17.57 3.317-42.639 17.385-50.192 28.168-2.279 3.251-4.142 4.68-4.142 3.173 0-5.013 17.001-25.087 27.28-32.211 12.641-8.761 33.792-16.938 43.809-16.938h7.585l-.01-48.854c-.01-54.557-1.464-60.135-18.366-70.439C652.075.216 647.014.018 530.457.01L409.162 0zm-18.255 23.592c-1.667 1.079-3.38 8.558-3.807 16.618l-.779 14.654-11.128-10.395c-11.388-10.64-18.613-12.233-20.113-4.44-.528 2.737 5.439 10.52 15.831 20.664l16.679 16.271v35.172l-19.034 5.847-29.224-29.145c-16.072-16.029-31.084-29.145-33.355-29.145-8.479 0-7.177 7.766 3.188 19.009l10.316 11.192-16.07.762c-15.242.723-16.067 1.086-16.067 7.106 0 6.24.401 6.365 24.424 7.613l24.425 1.269 11.433 10.555c11.157 10.301 11.365 10.776 8.599 19.613l-2.835 9.058-88.887 1.38v6.345c0 6.01.835 6.385 15.862 7.101 8.725.414 15.862 1.223 15.862 1.797 0 .571-4.609 5.883-10.241 11.803s-9.9 12.525-9.486 14.672c1.609 8.362 9.517 4.982 26.033-11.134l17.04-16.625h32.418l7.868 18.828-29.272 29.29c-16.1 16.108-30.011 30.117-30.909 31.129-1.875 2.112 3.634 9.578 7.068 9.578 1.256 0 7.398-4.713 13.646-10.474l11.365-10.476v15.24c0 17.065 4.428 24.201 11.42 18.4 2.873-2.386 3.807-8.819 3.807-26.237v-23.077l11.718-11.895c11.435-11.613 11.905-11.816 19.668-8.558l7.951 3.34 2.538 87.999h6.345c5.964 0 6.421-.962 7.613-16.009l1.269-16.012 10.033 10.302c10.486 10.765 18.237 13.098 20.856 6.278 1.048-2.733-3.858-9.464-15.309-21.003l-16.849-16.979v-16.597c0-16.375.117-16.651 8.624-20.71l8.626-4.113 27.539 27.944c31.942 32.411 35.335 34.815 41.068 29.082 3.71-3.713 3.01-5.112-8.324-16.621l-12.378-12.565 17.519-.761c14.794-.64 17.662-1.503 18.43-5.53 1.409-7.378-4.05-9.106-28.881-9.149l-22.947-.038-21.493-21.9 7.766-18.587 43.737-.693c40.49-.645 43.804-1.051 44.654-5.467 1.292-6.735-3.827-9.103-19.78-9.149l-13.852-.038 10.68-10.882c11.172-11.383 13.45-18.669 6.659-21.275-2.733-1.048-9.464 3.857-21.003 15.308l-16.979 16.849h-18.336c-15.966 0-18.336-.591-18.336-4.568 0-2.512-1.371-5.939-3.043-7.611-2.368-2.368 3.903-10.073 28.176-34.624 17.171-17.37 30.728-33.074 30.127-34.899-2.32-7.035-11.855-5.06-19.923 4.129-4.37 4.977-8.915 9.051-10.1 9.051s-2.495-7.137-2.909-15.862c-.716-15.027-1.091-15.862-7.101-15.862-6.286 0-6.352.234-7.07 24.795l-.729 24.798-10.816 11.288c-10.586 11.05-11.012 11.228-20.153 8.421l-9.337-2.865-.693-44.606c-.576-37.297-1.315-44.715-4.497-45.27-2.094-.366-5.17.218-6.835 1.296m27.412 17.732c-7.119 6.216-8.142 8.586-7.436 17.23l.817 10.022L425.343 92.8c12.027-12.395 14.332-19.699 6.675-21.174-2.175-.418-7.669 2.48-12.207 6.444m-84.763 4.726c-.99.99-1.799 6.535-1.799 12.324 0 8.415 1.548 12.004 7.738 17.932l7.735 7.413-.756-18.99c-.675-16.893-1.332-19.075-5.939-19.735-2.85-.409-5.989.069-6.979 1.056m139.046 51.719-7.523 7.852 18.991-.756c18.367-.733 18.994-.969 18.994-7.103 0-5.721-1.127-6.419-11.469-7.094-10.002-.655-12.433.254-18.993 7.101m-194.986 16.913c-3.433 3.431-1.512 9.638 5.127 16.567 5.261 5.492 9.156 7.119 17.034 7.119h10.218l-12.5-12.69c-12.065-12.25-16.29-14.587-19.879-10.996m203.876 55.125c0 3.578 24.132 24.518 27.505 23.869 6.751-1.302 6.208-8.284-1.312-16.852-5.55-6.327-9.03-8.002-16.608-8.002-5.271 0-9.585.444-9.585.985m-193.986 36.015c-6.169 6.17-.593 11.22 12.395 11.22 7.87 0 12.116-1.541 16.187-5.873 3.035-3.231 5.517-6.487 5.517-7.235 0-.746-6.74-1.561-14.976-1.81-10.928-.327-16.097.673-19.123 3.698m155.918 37.558c0 11.291 1.152 17.141 3.806 19.344 11.167 9.268 16.522-19.702 5.548-30.013-3.231-3.036-6.657-5.518-7.613-5.518-.96 0-1.741 7.284-1.741 16.187m-77.119 8.87c-8.177 8.322-11.877 13.984-10.865 16.623 2.376 6.187 10.18 4.751 17.89-3.294 5.525-5.769 6.822-9.253 6.185-16.626l-.807-9.324z" clip-rule="evenodd"/></g><defs><linearGradient id="b" x1="824.703" x2="824.703" y1="0" y2="380.682" gradientUnits="userSpaceOnUse"><stop stop-color="#6AD5FF"/><stop offset="1" stop-color="#3DBCED"/></linearGradient><filter id="a" width="1649.41" height="396.566" x="0" y="-7.942" color-interpolation-filters="sRGB" filterUnits="userSpaceOnUse"><feFlood flood-opacity="0" result="BackgroundImageFix"/><feBlend in="SourceGraphic" in2="BackgroundImageFix" result="shape"/><feColorMatrix in="SourceAlpha" result="hardAlpha" values="0 0 0 0 0 0 0 0 0 0 0 0 0 0 0 0 0 0 127 0"/><feOffset dy="-7.942"/><feGaussianBlur stdDeviation="5.659"/><feComposite in2="hardAlpha" k2="-1" k3="1" operator="arithmetic"/><feColorMatrix values="0 0 0 0 0.177543 0 0 0 0 0.628282 0 0 0 0 0.80219 0 0 0 1 0"/><feBlend in2="shape" result="effect1_innerShadow_1215_12551"/><feColorMatrix in="SourceAlpha" result="hardAlpha" values="0 0 0 0 0 0 0 0 0 0 0 0 0 0 0 0 0 0 127 0"/><feOffset dy="7.942"/><feGaussianBlur stdDeviation="4.765"/><feComposite in2="hardAlpha" k2="-1" k3="1" operator="arithmetic"/><feColorMatrix values="0 0 0 0 0.515301 0 0 0 0 0.85206 0 0 0 0 0.98199 0 0 0 1 0"/><feBlend in2="effect1_innerShadow_1215_12551" result="effect2_innerShadow_1215_12551"/></filter></defs></svg>
